!!!COM: Robert Franz
!!!CNT: Deutscher
!!!TXO: Deutsche 
!!!OTL: "Mutter, o sing' mich zur Ruh'!"
!!!OPS: Op. 10
!!!ONM: No. 3
!!!ONB: Original key: a minor
!!!LYR: F. Hemans
!!!ENC: Brian Bice
!!!YOR: Vocal Album, G. Schirmer, Inc., 1907
!!!ODT: 1860/
!!NB: Vocal melody and text only encoded.
**kern	**silbe
*clefG2	*
*k[b-e-a-d-]	*
*M3/8	*
=5	=5
{8c	{Mut-
8f	-ter,
8a-	o
=6	=6
8g	sing'
8dn	mich
8en	zur
=7	=7
4f}	Ruh',}
8r	.
=8	=8
{8.cc	{wie
16cc	auch
8cc	in
=9	=9
8cc	scho2-
8f	-ne-
8g	-ren
=10	=10
4.a-	Stun-
=11	=11
4g}	-den,}
8r	.
=12	=12
{8a-	{sing'
8b-	mei-
8cc	-nem
=13	=13
8dd-	Her-
8cc	-zen,
8b-	dem
=14	=14
(4a-	wun-
8b-)	|
=15	=15
4cc}	-den,}
8r	.
=16	=16
{8g	{tro2-
8cc	-sten-
8ee-	-de
=17	=17
8ddn	Lie-
8an	-der
8bn	sing'
=18	=18
4cc}	Du!}
8r	.
=22	=22
{8c	{Dru2-
8f	-cke
8a-	die
=23	=23
8g	Au-
8dn	-gen
8en	mir
=24	=24
4f}	zu!}
8r	.
=25	=25
{8.cc	{Blu-
16cc	-men
8cc	die
=26	=26
8cc	Ha2up-
8f	-ter
8g	jetzt
=27	=27
4.a-	nei-
=28	=28
4g}	-gen;}
8r	.
=29	=29
{8a-	{Trau-
8b-	-ern-
8cc	-de
=30	=30
8dd-	ra-
8cc	-sten
8b-	und
=31	=31
(4a-	schwei-
8b-)	|
=32	=32
4cc}	-gen,}
8r	.
=33	=33
{8g	{Mut-
8cc	-ter,
8ee-	o
=34	=34
8ddn	sing'
8an	mich
8bn	zur
=35	=35
4cc}	Ruh'!}
8r	.
=39	=39
{8c	{Bet-
8f	-te
8a-	dein
=40	=40
8g	Vo2-
8dn	-gel-
8en	-chen
=41	=41
4f}	Du!}
8r	.
=42	=42
{8.cc	{Stu2r-
16cc	-me,
8cc	ach!
=43	=43
8cc	ha-
8f	-ben's
8g	ent-
=44	=44
4.a-	-fie-
=45	=45
4g}	-dert;}
8r	.
=46	=46
{8a-	{Lie-
8b-	-be,
8cc	sie
=47	=47
8dd-	dru2ckt
8b-	un-
8g-	-er-
=48	=48
4.b-	-wie-
=49	=49
4a}	-dert;}
8r	.
=50	=50
{8c	{Mut-
8f	-ter,
8a-	o
=51	=51
8g	sing'
8dn	mich
8en	zur
=52	=52
[4.f	Ruh'!
=53	=53
8f]}	|}
8r	.
8r	.
*-	*-
